pontoon/contributors/static/img/review_master_badge.svg

<svg width="79" height="79" viewBox="0 0 79 79" fill="none" xmlns="http://www.w3.org/2000/svg">
<rect width="78" height="78" transform="translate(0.120361 0.0499878)" fill="#4FC4F6"/>
<path d="M11.1539 31.8546H7.48877C6.39989 31.8546 5.51718 32.7373 5.51718 33.8261V39.3366C5.51718 40.4255 6.39989 41.3082 7.48877 41.3082H11.2522C12.4681 47.899 18.105 52.9227 25.2919 52.9227C31.8862 52.9227 37.4481 48.4274 39.0749 42.3396C40.7503 48.44 46.4567 52.9227 52.8435 52.9227C59.8029 52.9227 65.6304 47.9161 66.879 41.3082H70.6467C71.7355 41.3082 72.6183 40.4255 72.6183 39.3366V33.8261C72.6183 32.7373 71.7355 31.8546 70.6467 31.8546H66.9815C66.2639 27.6239 62.5746 24.3942 58.1421 24.3942H47.545C43.6188 24.3942 40.2795 26.9268 39.0677 30.444C37.8559 26.9268 34.5166 24.3942 30.5905 24.3942H19.9934C15.5608 24.3942 11.8715 27.6239 11.1539 31.8546Z" fill="white" stroke="white" stroke-width="3.94317" stroke-linejoin="round"/>
<path d="M59.5918 39.3366H65.1362C64.7826 45.8009 59.3942 50.9511 52.8435 50.9511C46.2928 50.9511 40.5509 45.4363 40.5509 38.6584V38.2345H37.5845V38.6584C37.5845 45.4363 32.0698 50.9511 25.2919 50.9511C18.514 50.9511 13.3528 45.8009 12.9993 39.3366H18.5437C18.8853 42.7591 21.7813 45.4406 25.2919 45.4406C29.0314 45.4406 32.0741 42.3979 32.0741 38.6584V33.3599C32.0741 32.5418 31.4086 31.8763 30.5905 31.8763H19.9934C19.1753 31.8763 18.5098 32.5418 18.5098 33.3599V33.8261H12.9993V33.3599C12.9993 29.5034 16.1369 26.3658 19.9934 26.3658H30.5905C34.2325 26.3658 37.2319 29.1643 37.554 32.724H40.5814C40.9036 29.1643 43.903 26.3658 47.545 26.3658H58.1421C61.9986 26.3658 65.1362 29.5034 65.1362 33.3599V33.8261H59.6257V33.3599C59.6257 32.5418 58.9602 31.8763 58.1421 31.8763H47.545C46.7269 31.8763 46.0614 32.5418 46.0614 33.3599V38.6584C46.0614 42.3979 49.104 45.4406 52.8435 45.4406C56.3541 45.4406 59.2501 42.7591 59.5918 39.3366ZM65.1362 33.8261V39.3366H70.6467V33.8261H65.1362ZM7.48877 33.8261V39.3366H12.9993V33.8261H7.48877Z" fill="#272A2F"/>
</svg>

<svg width="78" height="78" fill="none"
   xmlns="http://www.w3.org/2000/svg">
   <path fill="#4fc4f6" d="M.12.05h78v78h-78z"/>
   <path d="M11.154 31.855H7.489a1.972 1.972 0 0 0-1.972 1.971v5.51c0 1.09.883 1.972 1.972 1.972h3.763c1.216 6.591 6.853 11.615 14.04 11.615 6.594 0 12.156-4.496 13.783-10.583 1.675 6.1 7.382 10.583 13.768 10.583 6.96 0 12.787-5.007 14.036-11.615h3.768a1.972 1.972 0 0 0 1.971-1.971v-5.51a1.972 1.972 0 0 0-1.971-1.972H66.98c-.717-4.231-4.406-7.46-8.839-7.46H47.545c-3.926 0-7.266 2.532-8.477 6.049-1.212-3.517-4.551-6.05-8.477-6.05H19.992c-4.432 0-8.121 3.23-8.84 7.46z" fill="#fff" stroke="#fff" stroke-width="3.943" stroke-linejoin="round"/>
   <path d="M59.592 39.337h5.544C64.783 45.8 59.394 50.95 52.844 50.95c-6.551 0-12.293-5.515-12.293-12.293v-.424h-2.966v.424c0 6.778-5.515 12.293-12.293 12.293s-11.94-5.15-12.293-11.614h5.545c.341 3.422 3.237 6.104 6.748 6.104a6.79 6.79 0 0 0 6.782-6.783V33.36c0-.818-.665-1.484-1.483-1.484H19.992c-.818 0-1.483.666-1.483 1.484v.466H13v-.466a7.002 7.002 0 0 1 6.993-6.994h10.598c3.641 0 6.64 2.798 6.963 6.358h3.027c.323-3.56 3.322-6.358 6.964-6.358h10.597a7.002 7.002 0 0 1 6.994 6.994v.466h-5.51v-.466c0-.818-.666-1.484-1.484-1.484H47.545c-.818 0-1.484.666-1.484 1.484v5.298a6.79 6.79 0 0 0 6.782 6.783c3.511 0 6.407-2.682 6.749-6.104zm5.544-5.51v5.51h5.51v-5.51zm-57.647 0v5.51h5.51v-5.51z" fill="#272a2f"/>
</svg>
